X: 7
T: Tommy Tick
%R: hornpipe
B: "Twenty Four Country Dances with Figures for the Year 1809", Button & Whitaker, p.4 #1
F: http://www.vwml.org/browse/browse-collections-dance-tune-books/browse-button1809
Z: 2014 John Chambers <jc:trillian.mit.edu>
M: C|
L: 1/8
K: F
% - - - - - - - - - - - - - - - - - - - - - - - - - - - - -
|:\
(F>G)(F>A) c2(f>e) | d2(f>d) c2(A>c) | B2(G>B) (A>F)(G>A) | (B>A)(G>F) (E>C)(D>E) |
(F>G)(F>A) c2(f>e) | (d>e)(d>c) (=B>G)(A>B) | (c>e)(g>e) (f>d)(c>=B) | c2C2 C2z2 :|
|:\
(c>d)(c>e) (g>f)(e>d) | (c>d)(c>B) (A>c)(f>e) | (d>c)(B>A) (B>A)(G>F) |(E>F)(G>E) C2(D>E) |
(F>G)(F>A) c2(f>e) | d2(f>d) c2(A>c) ||  (c>B)(G>B) (A>F)(G>E) | F2f2 f2z2 :|
% - - - - - - - - - - Dance description - - - - - - - - - -
%%begintext align
%% The 1st & 2d Cu: set & change sides, back again, down the
%% mid: up again, Swing corners, & foot it outsides.
%%endtext

%%sep 1 1 500
%%sep 1 1 500
